icon-themes/sifr_svg/cmd/sc_setoptimalrowheight.svg

<svg viewBox="0 0 16 16" xmlns="http://www.w3.org/2000/svg"><path d="m16 4h-4v2h2v4h-2v2h4zm-5-1c0-.30945-.0903-.55232-.28125-.75l-1.8828125-2.25h-1.6152344c-.6183541.725151-1.1698591 1.233922-1.9394531 2.25-.19095.19768-.28125.44055-.28125.75v.5878906.4121094h1c.224022 0 .528449-.12983.71875-.3125l.28125-.3710938v2.6835938h2v-2.6835938l.28125.3710938c.190288.18267.461858.3125.71875.3125h1v-.4121094zm0 9h-1c-.256892 0-.528462.12983-.71875.3125l-.28125.371094v-2.683594h-2v2.683594l-.28125-.371094c-.190301-.18267-.494728-.3125-.71875-.3125h-1v.412109.587891c0 .30945.0903.55232.28125.75.769594 1.016078 1.321099 1.524849 1.9394531 2.25h1.6152344l1.8828125-2.25c.19095-.19768.28125-.44055.28125-.75v-.587891zm-7-8h-4v8h4v-2h-2v-4h2z" fill="#555753"/></svg>

<svg xmlns="http://www.w3.org/2000/svg" viewBox="0 0 16 16">
  <path
   style="fill:#555753"
   d="m 16,4 h -4 v 2 h 2 v 4 h -2 v 2 h 4 z M 11,3 C 11,2.69055 10.9097,2.44768 10.71875,2.25 L 8.8359375,0 H 7.2207031 C 6.602349,0.725151 6.050844,1.233922 5.28125,2.25 5.0903,2.44768 5,2.69055 5,3 V 3.5878906 4 H 6 C 6.224022,4 6.528449,3.87017 6.71875,3.6875 L 7,3.3164062 V 6 H 9 V 3.3164062 L 9.28125,3.6875 C 9.471538,3.87017 9.743108,4 10,4 h 1 V 3.5878906 Z m 0,9 H 10 C 9.743108,12 9.471538,12.12983 9.28125,12.3125 L 9,12.683594 V 10 H 7 v 2.683594 L 6.71875,12.3125 C 6.528449,12.12983 6.224022,12 6,12 H 5 V 12.412109 13 c 0,0.30945 0.0903,0.55232 0.28125,0.75 0.769594,1.016078 1.321099,1.524849 1.9394531,2.25 H 8.8359375 L 10.71875,13.75 C 10.9097,13.55232 11,13.30945 11,13 V 12.412109 Z M 4,4 H 0 v 8 H 4 V 10 H 2 V 6 h 2 z"
   />
</svg>
